!!!OTL: DES ABENDS WENN ES DUNKEL WIRD
!!!ARE: Europa, Mitteleuropa, Deutschland, Rheinpfalz, Mussbach a.d. Hardt
!!!SCT: E0813B
!!!YEM: Copyright 1995, estate of Helmut Schaffrath.
**kern
*ICvox
*Ivox
*M4/4
*k[f#]
*G:
{4d
=1
4.g
8f#
4g
4a
=2
4.b
8cc
4a}
{8g
8b
=3
4dd
4dd
4cc
4cc
=4
4b
4dd
4a}
{4dd
=5
8b
8dd
8dd
8dd
4dd
8ee
8dd
=6
4dd
8cc
8b
4cc}
{8dd
8cc
=7
4b
8b
8b
4b
4dd
=8
4.a
8g
4a}
{8b
8a
=9
4g
4b
4a
4cc
=10
4b
4ee
4dd
4b
=11
2a
4g}
==
!!!AGN: Tage - Lied, Kilt - Lied
!!!ONB: ESAC (Essen Associative Code) Database: ERK2
!!!AMT: simple quadruple
!!!AIN: vox
!!!EED: Helmut Schaffrath
!!!EEV: 1.0
*-
